X:13429
T:Polska eller hambo efter Verner Rstberg 2
C:I Hambotagen
M:3/4
L:1/8
K:G
G,B, DG EG|DB GD B,D|CA FD EF|GG FE DB,|\
G,B, DG EG|DB GD B,D|CA FD EF|G2 G2z2:|
|:B2 B2 AB|c2 cB A2|F2F2-FE|ED ^CE D2|\
B2 B2 AB|c2 cB A2|F2FE FA|G2G2z2:|
